!!!COM: Anonymous
!!!CDT: [?]
!!!OTL@@POL: Będę Cię wielbić
!!!TXO: Polish
!!!ODT: 
!!!GTL: Hymnbook E
!!!ARL: Opactwo św. Wojciecha, Staniątki 
!!!voices:	3
**kern	**kern	**text	**text	**kern	**text	**text
*staff3	*staff2	*staff2	*staff2	*staff1	*staff1	*staff1
*I"Basso	*I"Canto II	*	*	*I"Canto I	*	*
=1-	=1-	=1-	=1-	=1-	=1-	=1-
*clefF4	*clefG2	*	*	*clefG2	*	*
*k[]	*k[]	*	*	*k[]	*	*
*M3/2	*M3/2	*	*	*M3/2	*	*
2A\	2a/	Bę-	P&oacute;-	2cc\	Bę-	P&oacute;-
2E\	2g#/	-dę	-ki	2b\	-dę	-ki
2A\	2a/	Cię	mnie	2cc\	Cię	mnie
=2	=2	=2	=2	=2	=2	=2
1G	1b	wiel-	na	1dd	wiel-	na
2C/	2cc\	-bić	świe-	2ee\	-bić	świe-
=3	=3	=3	=3	=3	=3	=3
2D\	2a/	m&oacute;j	-cie	2cc\	m&oacute;j	-cie
2E\	2.a/	Pa-	sta-	1b	Pa-	sta-
2EE/	.	.	.	.	.	.
.	4g#i/	.	.	.	.	.
=4	=4	=4	=4	=4	=4	=4
1.AA	1.a	-nie	-nie	1.a	-nie	-nie
!!linebreak:original
=5:|!	=5:|!	=5:|!	=5:|!	=5:|!	=5:|!	=5:|!
2A\	2a/	Boś	.	2a/	Boś	.
2G\	2b\	mnie	.	2dd\	mnie	.
2G\	2b\	w~przy-	.	2dd\	w~przy-	.
=6	=6	=6	=6	=6	=6	=6
1G	1b	-go-	.	1dd	-go-	.
2C/	2cc\	-dzie	.	2ee\	-dzie	.
=7	=7	=7	=7	=7	=7	=7
2G\	2b\	ra-	.	2dd\	ra-	.
2A\	1a	-to-	.	1cc	-to-	.
4G#\	.	.	.	.	.	.
4F\	.	.	.	.	.	.
=8	=8	=8	=8	=8	=8	=8
1.E	1.g#	-wał	.	1.b	-wał	.
=9	=9	=9	=9	=9	=9	=9
!!linebreak:original
2A\	2a/	I	.	2cc\	I	.
2G\	2b\	śmie-	.	2dd\	śmie-	.
2C/	2cc\	-ch&oacute;w	.	2ee\	-ch&oacute;w	.
=10	=10	=10	=10	=10	=10	=10
2D\	1b	ludz-	.	1dd	ludz-	.
2E\	.	.	.	.	.	.
2F\	2a/	-kich	.	2cc\	-kich	.
=11	=11	=11	=11	=11	=11	=11
2D\	2a/	za-	.	2dd\	za-	.
2E\	2a/	-cho-	.	1b	-cho-	.
2EE/	2g#/	.	.	.	.	.
=12	=12	=12	=12	=12	=12	=12
1.AA	1.a	-wał.	.	1.a	-wał.	.
==	==	==	==	==	==	==
*-	*-	*-	*-	*-	*-	*-
!!!GTL: Hymnbook E
!!!EFL: 81/117
!!!YEM: Creative Commons CC/BY/NC/SA 4.0
!!!ENC: Marcin Konik
!!!END: 
!!!EED: Marcin Konik
!!!EEV: 
!!!ONB: Translated from MusicXML and edited by Marcin Konik
!!!CharacterEncoding: utf-8
!!!RDF**kern: l=long note in original notation
!!!RDF**kern: i=editorial accidental
!!muse2ps: z14jc180F
